candy-outline.svg

<svg fill="currentColor" viewBox="0 0 24 24"><path d="M9.88 9.88c1.17-1.17 3.07-1.17 4.24 0s1.17 3.07 0 4.24-3.07 1.17-4.24 0a3 3 0 0 1 0-4.24M8.46 8.46c-1.96 1.96-1.96 5.12 0 7.08s5.12 1.96 7.08 0 1.96-5.12 0-7.08-5.12-1.96-7.08 0m11.01-3.91s-.97.12-2.04.82c-.15-1.05-.65-2.1-1.5-2.95-1.25 1.25-1.4 2.8-1.1 3.92 1.39.36 2.47 1.44 2.83 2.83 1.12.3 2.68.15 3.92-1.1a5.25 5.25 0 0 0-2.9-1.49c.39-.58.7-1.25.79-2.03M4.53 19.45s.97-.12 2.04-.81c.15 1.04.65 2.09 1.5 2.94 1.25-1.24 1.4-2.8 1.1-3.92a3.96 3.96 0 0 1-2.83-2.83c-1.12-.3-2.67-.15-3.92 1.1.84.84 1.87 1.34 2.9 1.49-.39.58-.7 1.26-.79 2.03"/></svg>

<svg  viewBox="0 0 24 24" fill="currentColor"><path  d="M9.88 9.88C11.05 8.71 12.95 8.71 14.12 9.88S15.29 12.95 14.12 14.12 11.05 15.29 9.88 14.12 8.71 11.05 9.88 9.88M8.46 8.46C6.5 10.42 6.5 13.58 8.46 15.54S13.58 17.5 15.54 15.54 17.5 10.42 15.54 8.46 10.42 6.5 8.46 8.46M19.47 4.55C19.47 4.55 18.5 4.67 17.43 5.37C17.28 4.32 16.78 3.27 15.93 2.42C14.68 3.67 14.53 5.22 14.83 6.34C16.22 6.7 17.3 7.78 17.66 9.17C18.78 9.47 20.34 9.32 21.58 8.07C20.74 7.23 19.71 6.74 18.68 6.58C19.07 6 19.38 5.33 19.47 4.55M4.53 19.45C4.53 19.45 5.5 19.33 6.57 18.64C6.72 19.68 7.22 20.73 8.07 21.58C9.32 20.34 9.47 18.78 9.17 17.66C7.79 17.3 6.7 16.22 6.34 14.83C5.22 14.53 3.67 14.68 2.42 15.93C3.26 16.77 4.29 17.27 5.32 17.42C4.93 18 4.62 18.68 4.53 19.45Z"/></svg>
